X:866
T:Crib of Perches, The
R:reel
D:Matt Molloy
Z:id:hn-reel-866
M:C|
L:1/8
K:Dmix
~A3B AGFD | (3EFG AB c3A | G2EC G,CEG | cAGc AGFG |
~A3B AGFD | (3EFG AB c2cA | df~f2 e^cdB | AFGE FDD2 :|
|: df~f2 af~f2 | bfaf gfed | ^cdef gece | ge^cA GABc | 
df~f2 af~f2 | d2fd ed^cA | (3B^cd ec decB | AFGE D4 :|
P:variations
|: A2GB AGFD | (3EFG AB cBcA | G2EG cGEG | cG~G2 AGFG |
A2GB AGFD | (3EFG AB c2Ac | df~f2 e^cdB |1 AFEG FD (3EFG :|2 AFEG D4 ||
|: df~f2 af~f2 | b2af gfed | (3B^cd ef ge~e2 | ge^cA GABc | 
df~f2 af~f2 | defd ed^cA | (3B^cd ec dBcB |1 AFEG FDD2 :|2 AFEG FD (3EFG ||

